www/static/img/overview/dropdown.svg

<svg fill="none" height="64" viewBox="0 0 136 64" width="136" xmlns="http://www.w3.org/2000/svg"><path d="m4 1h75c1.6569 0 3 1.34315 3 3v19h-81v-19c0-1.65685 1.34315-3 3-3z" fill="#fff" stroke="#005a7a" stroke-width="2"/><path d="m1 23h131c1.657 0 3 1.3431 3 3v34c0 1.6569-1.343 3-3 3h-128c-1.65685 0-3-1.3431-3-3z" fill="#fff" stroke="#005a7a" stroke-width="2"/><g fill="#e9eced"><rect height="6" rx="3" width="50" x="10" y="9"/><rect height="6" rx="3" width="72" x="10" y="33"/><rect height="6" rx="3" width="116" x="10" y="47"/></g><path d="m66.2362 9.32268 3.7638 4.67732 3.7925-4.70629c.1278-.13665.2075-.32971.2075-.54371 0-.41421-.2985-.75-.6667-.75-.1663 0-.3184.06853-.4352.18185l-2.8981 3.56815-2.8566-3.52429c-.1334-.13989-.2899-.22571-.4767-.22571-.3682 0-.6667.33579-.6667.75 0 .2296.1009.40245.2362.57268z" fill="#005a7a"/></svg>

<svg width="136" height="64" viewBox="0 0 136 64" fill="none" xmlns="http://www.w3.org/2000/svg">
<path d="M4 1H79C80.6569 1 82 2.34315 82 4V23H1V4C1 2.34315 2.34315 1 4 1Z" fill="white" stroke="#005A7A" stroke-width="2"/>
<path d="M1 23H132C133.657 23 135 24.3431 135 26V60C135 61.6569 133.657 63 132 63H4C2.34315 63 1 61.6569 1 60V23Z" fill="white" stroke="#005A7A" stroke-width="2"/>
<rect x="10" y="9" width="50" height="6" rx="3" fill="#E9ECED"/>
<rect x="10" y="33" width="72" height="6" rx="3" fill="#E9ECED"/>
<rect x="10" y="47" width="116" height="6" rx="3" fill="#E9ECED"/>
<path d="M66.2362 9.32268L70 14L73.7925 9.29371C73.9203 9.15706 74 8.964 74 8.75C74 8.33579 73.7015 8 73.3333 8C73.167 8 73.0149 8.06853 72.8981 8.18185L70 11.75L67.1434 8.22571C67.01 8.08582 66.8535 8 66.6667 8C66.2985 8 66 8.33579 66 8.75C66 8.9796 66.1009 9.15245 66.2362 9.32268Z" fill="#005A7A"/>
</svg>
